X:1
T:Babel’s Fallen
T:Babel’s Fallen
T:Daniel O. Teasley
T:D. O. T.
T:Public Domain
C:Daniel O. Teasley
Z:D. O. T.
Z:Public Domain
%%score ( 1 2 ) ( 3 4 )
L:1/8
Q:1/4=80
M:3/4
K:E
V:1 treble nm="Soprano"
V:2 treble 
V:3 bass nm="Bass"
V:4 bass 
V:1
 [EG] [EG] | [EG]3 [EB] [EG] [EF] | E [EG]3 [EG] [EF] | (E2 E/ D/) [B,E] [EG] [EG] | [DF]4 | %5
w: 1.~Ba- bel’s|walls, so long ob-|scur- ing All the|ways * * of truth and|right,|
w: 2.~Now are|Zi- on’s walls e-|rect- ed, And her|watch- _ _ men fear the|Lord;|
w: 3.~Oft they|told us that no|mor- tal Could en-|joy * * this per- fect|peace;|
w: 4.~Hail the|day of heav’n- ly|free- dom! Though so|long * * has been the|night,|
 [EB] [EG] | [B,E]3 B, [B,E] [B,F] | [EG] [EG]3 [EA] [EA] | [EG]3 [DF] E [B,D] | [B,E]4 || %10
w: Crum- ble|now be- fore the|shin- ing Of the|glo- rious eve- ning|light.|
w: From the|heights of full sal-|va- tion Loud pro-|claim His ho- ly|word.|
w: But we’ve|found a full fru-|i- tion, And the|year of sweet re-|lease.|
w: Bright- er|seems the ra- diant|splen- dor As we|reach the eve- ning|light.|
"^Refrain" [GB] [GB] | [Ge]3 [GB] [Ac]3/2 [GB]/ | [GB] [Ge]3 [EG] [EF] | %13
w: Ba- bel’s|fal- len, hal- le-|lu- jah! Hear the|
w: |||
w: |||
w: |||
 (E2 E/ D/) [B,E] [EG] [EG] | [DF]4 | [EB] [EG] | [B,E]3 B, [B,E] [B,F] | [EG] [EG]3 [EA] [EA] | %18
w: saints * * in cho- rus|sing;|From the|sum- mit of Mount|Zi- on, Hear their|
w: |||||
w: |||||
w: |||||
 [EG]3 [DF] E [B,D] | [B,E]4 |] %20
w: glad ho- san- nas|ring.|
w: ||
w: ||
w: ||
V:2
 x2 | x6 | E z3 z2 | B,3 z z2 | x4 | x2 | z3 B, z2 | x6 | z4 E z | x4 || x2 | x6 | x6 | B,3 z z2 | %14
 x4 | x2 | z3 B, z2 | x6 | z4 E z | x4 |] %20
V:3
 [E,B,] [E,B,] | [E,B,]3 [E,G,] [E,B,] [E,A,] | [E,G,] [E,B,]3 [E,B,] [E,A,] | %3
 (G,2 G,/ ^^F,/) [E,G,] [E,B,] [E,B,] | [B,,B,]4 | [E,G,] [E,B,] | [E,G,]3 [E,G,] [E,G,] [E,A,] | %7
 [E,B,] [E,B,]3 [A,,C] [A,,C] | [B,,B,]3 [B,,A,] [B,,G,] [B,,F,] | [E,G,]4 || [E,E] [E,E] | %11
 [E,B,]3 [E,E] [E,E]3/2 [E,E]/ | [E,E] [E,B,]3 [E,B,] [E,A,] | %13
 (G,2 G,/ ^^F,/) [E,G,] [E,B,] [E,B,] | [B,,B,]4 | [E,G,] [E,B,] | [E,G,]3 [E,G,] [E,G,] [E,A,] | %17
 [E,B,] [E,B,]3 [A,,C] [A,,C] | [B,,B,]3 [B,,A,] [B,,G,] [B,,F,] | [E,G,]4 |] %20
V:4
 x2 | x6 | x6 | E,3 z z2 | x4 | x2 | x6 | x6 | x6 | x4 || x2 | x6 | x6 | E,3 z z2 | x4 | x2 | x6 | %17
 x6 | x6 | x4 |] %20

